file/fitbit.svg

<svg clip-rule="evenodd" fill-rule="evenodd" stroke-linejoin="round" stroke-miterlimit="1.41421" viewBox="0 0 560 400" xmlns="http://www.w3.org/2000/svg"><g fill-rule="nonzero" transform="matrix(.974195 0 0 .974195 84.7578 54.8986)"><path d="m69.137 108.012c0 3.914-3.261 7.176-7.175 7.176s-7.175-3.262-7.175-7.176 3.262-7.175 7.175-7.175 7.175 3.261 7.175 7.175zm-7.175 13.047c-4.24 0-7.501 3.262-7.501 7.501 0 4.24 3.262 7.501 7.501 7.501s7.501-3.261 7.501-7.501c.001-4.24-3.261-7.501-7.501-7.501zm0 20.221c-4.24 0-7.828 3.588-7.828 7.829 0 4.24 3.588 7.826 7.828 7.826 4.239 0 7.828-3.587 7.828-7.826 0-4.24-3.588-7.829-7.828-7.829zm0 20.548c-4.24 0-7.501 3.262-7.501 7.501 0 4.241 3.262 7.503 7.501 7.503s7.501-3.262 7.501-7.503c.001-3.913-3.261-7.501-7.501-7.501zm0 20.874c-3.914 0-7.175 3.262-7.175 7.176 0 3.913 3.262 7.175 7.175 7.175 3.914 0 7.175-3.262 7.175-7.175 0-3.914-3.261-7.176-7.175-7.176zm19.894-62.622c-4.565 0-8.479 3.914-8.479 8.479 0 4.566 3.914 8.48 8.479 8.48 4.567 0 8.48-3.914 8.48-8.48.002-4.565-3.912-8.479-8.48-8.479zm0 20.222c-4.892 0-8.806 3.914-8.806 8.808 0 4.892 3.914 8.806 8.806 8.806 4.894 0 8.808-3.914 8.808-8.806 0-4.894-3.914-8.808-8.808-8.808zm0 20.548c-4.565 0-8.479 3.914-8.479 8.479 0 4.567 3.914 8.479 8.479 8.479 4.567 0 8.48-3.912 8.48-8.479.002-4.565-3.912-8.479-8.48-8.479zm20.549-21.527c-5.219 0-9.784 4.239-9.784 9.785 0 5.218 4.239 9.783 9.784 9.783s9.785-4.239 9.785-9.783c-.327-5.545-4.566-9.785-9.785-9.785zm-60.665-17.286c-3.588 0-6.522 2.936-6.522 6.522 0 3.589 2.935 6.523 6.522 6.523s6.523-2.935 6.523-6.523c0-3.586-2.936-6.522-6.523-6.522zm0 20.222c-3.914 0-6.849 2.936-6.849 6.85s2.935 6.849 6.849 6.849 6.85-2.935 6.85-6.849-2.937-6.85-6.85-6.85zm0 20.548c-3.588 0-6.522 2.937-6.522 6.522 0 3.589 2.935 6.523 6.522 6.523s6.523-2.936 6.523-6.523-2.936-6.522-6.523-6.522zm-20.223-19.57c-3.261 0-5.871 2.608-5.871 5.871 0 3.262 2.609 5.869 5.871 5.869s5.872-2.607 5.872-5.869-2.609-5.871-5.872-5.871z" fill="#00b0b9"/><g fill="#002a3a"><path d="m185.901 136.388c-.651 0-1.305.652-1.305 1.306v51.206c0 .651.652 1.305 1.305 1.305h6.197c.652 0 1.305-.652 1.305-1.305v-51.207c0-.652-.651-1.306-1.305-1.306h-6.197z"/><path d="m189.163 114.861c-3.263 0-5.871 2.609-5.871 5.871s2.608 5.87 5.871 5.87c3.261 0 5.87-2.608 5.87-5.87s-2.608-5.871-5.87-5.871z"/><path d="m317.342 136.388c-.651 0-1.305.652-1.305 1.306v51.206c0 .651.652 1.305 1.305 1.305h6.196c.652 0 1.306-.652 1.306-1.305v-51.207c0-.652-.652-1.306-1.306-1.306h-6.196z"/><path d="m320.277 114.861c-3.262 0-5.87 2.609-5.87 5.871s2.608 5.87 5.87 5.87 5.871-2.608 5.871-5.87-2.61-5.871-5.871-5.871z"/><path d="m382.246 185.313c.326-.326.326-.652.326-.979v-.326s0-.326-.326-.326c0 0-.326-.325-.651-.325h-.652-1.631v4.565h.651v-1.631h.979l1.305 1.631h.652l-1.631-1.957c.652-.001.978-.327.978-.652zm-2.283.325v-1.631h1.306c.326 0 .651 0 .979.326.326 0 .326.326.326.652 0 .325 0 .651-.326.651-.325 0-.651.326-.979.326h-1.306z"/><path d="m380.942 181.397c-2.283 0-4.239 1.956-4.239 4.239s1.956 4.24 4.239 4.24 4.24-1.957 4.24-4.24-1.957-4.239-4.24-4.239zm0 8.155c-2.283 0-3.913-1.631-3.913-3.914 0-2.282 1.63-3.914 3.913-3.914s3.914 1.632 3.914 3.914c0 2.283-1.957 3.914-3.914 3.914z"/><path d="m236.782 144.868c.652 0 1.305-.652 1.305-1.305v-6.197c0-.652-.651-1.306-1.305-1.306h-13.047v-19.568c0-.652-.652-1.305-1.305-1.305h-6.196c-.652 0-1.305.651-1.305 1.305v19.568h-6.524c-.651 0-1.304.652-1.304 1.306v6.197c0 .651.651 1.305 1.304 1.305h6.524v29.681c0 9.132 6.195 15.003 15.003 15.003h6.521c.652 0 1.307-.651 1.307-1.305v-6.197c0-.651-.652-1.305-1.307-1.305h-5.544c-4.24 0-7.176-2.937-7.176-7.501v-28.702h13.047z"/><path d="m366.592 144.868c.651 0 1.305-.652 1.305-1.305v-6.197c0-.652-.652-1.306-1.305-1.306h-13.047v-19.568c0-.652-.651-1.305-1.305-1.305h-6.197c-.651 0-1.305.651-1.305 1.305v19.568h-6.521c-.652 0-1.306.652-1.306 1.306v6.197c0 .651.652 1.305 1.306 1.305h6.521v29.681c0 9.132 6.197 15.003 15.004 15.003h6.522c.651 0 1.305-.651 1.305-1.305v-6.197c0-.651-.652-1.305-1.305-1.305h-5.87c-4.241 0-7.176-2.937-7.176-7.501v-28.702h13.372z"/><path d="m147.089 144.868v43.705c0 .651.651 1.305 1.305 1.305h6.197c.651 0 1.305-.652 1.305-1.305v-43.705h14.352c.651 0 1.305-.652 1.305-1.306v-6.196c0-.652-.652-1.306-1.305-1.306h-14.352v-11.414c0-4.566 3.261-7.828 7.175-7.828h7.176c.652 0 1.305-.652 1.305-1.305v-6.197c0-.652-.652-1.305-1.305-1.305h-6.85c-9.132 0-16.308 7.5-16.308 16.307v11.741h-6.523c-.651 0-1.305.652-1.305 1.306v6.197c0 .651.652 1.305 1.305 1.305z"/><path d="m296.469 142.585c-4.894-5.219-11.742-8.154-18.917-8.154-6.851 0-13.699 2.937-17.939 7.176v-32.615c0-.652-.652-1.306-1.305-1.306h-6.196c-.652 0-1.305.652-1.305 1.306v53.815c0 19.896 13.372 28.701 26.419 28.701 13.046 0 26.418-8.806 26.418-28.701.325-7.828-2.283-15.003-7.175-20.222zm-18.917 40.769c-13.048 0-17.939-10.437-17.939-20.222 0-12.066 7.176-19.896 17.939-19.896s17.938 8.153 17.938 19.896c-.328 9.786-4.893 20.222-17.938 20.222z"/></g></g></svg>

<?xml version="1.0" encoding="UTF-8" standalone="no"?>
<!DOCTYPE svg PUBLIC "-//W3C//DTD SVG 1.1//EN" "http://www.w3.org/Graphics/SVG/1.1/DTD/svg11.dtd">
<svg width="100%" height="100%" viewBox="0 0 560 400" version="1.1" xmlns="http://www.w3.org/2000/svg" xmlns:xlink="http://www.w3.org/1999/xlink" xml:space="preserve" xmlns:serif="http://www.serif.com/" style="fill-rule:evenodd;clip-rule:evenodd;stroke-linejoin:round;stroke-miterlimit:1.41421;">
    <g transform="matrix(0.974195,0,0,0.974195,84.7578,54.8986)">
        <path id="blue" d="M69.137,108.012C69.137,111.926 65.876,115.188 61.962,115.188C58.048,115.188 54.787,111.926 54.787,108.012C54.787,104.098 58.049,100.837 61.962,100.837C65.875,100.837 69.137,104.098 69.137,108.012ZM61.962,121.059C57.722,121.059 54.461,124.321 54.461,128.56C54.461,132.8 57.723,136.061 61.962,136.061C66.201,136.061 69.463,132.8 69.463,128.56C69.464,124.32 66.202,121.059 61.962,121.059ZM61.962,141.28C57.722,141.28 54.134,144.868 54.134,149.109C54.134,153.349 57.722,156.935 61.962,156.935C66.201,156.935 69.79,153.348 69.79,149.109C69.79,144.869 66.202,141.28 61.962,141.28ZM61.962,161.828C57.722,161.828 54.461,165.09 54.461,169.329C54.461,173.57 57.723,176.832 61.962,176.832C66.201,176.832 69.463,173.57 69.463,169.329C69.464,165.416 66.202,161.828 61.962,161.828ZM61.962,182.702C58.048,182.702 54.787,185.964 54.787,189.878C54.787,193.791 58.049,197.053 61.962,197.053C65.876,197.053 69.137,193.791 69.137,189.878C69.137,185.964 65.876,182.702 61.962,182.702ZM81.856,120.08C77.291,120.08 73.377,123.994 73.377,128.559C73.377,133.125 77.291,137.039 81.856,137.039C86.423,137.039 90.336,133.125 90.336,128.559C90.338,123.994 86.424,120.08 81.856,120.08ZM81.856,140.302C76.964,140.302 73.05,144.216 73.05,149.11C73.05,154.002 76.964,157.916 81.856,157.916C86.75,157.916 90.664,154.002 90.664,149.11C90.664,144.216 86.75,140.302 81.856,140.302ZM81.856,160.85C77.291,160.85 73.377,164.764 73.377,169.329C73.377,173.896 77.291,177.808 81.856,177.808C86.423,177.808 90.336,173.896 90.336,169.329C90.338,164.764 86.424,160.85 81.856,160.85ZM102.405,139.323C97.186,139.323 92.621,143.562 92.621,149.108C92.621,154.326 96.86,158.891 102.405,158.891C107.95,158.891 112.19,154.652 112.19,149.108C111.863,143.563 107.624,139.323 102.405,139.323ZM41.74,122.037C38.152,122.037 35.218,124.973 35.218,128.559C35.218,132.148 38.153,135.082 41.74,135.082C45.327,135.082 48.263,132.147 48.263,128.559C48.263,124.973 45.327,122.037 41.74,122.037ZM41.74,142.259C37.826,142.259 34.891,145.195 34.891,149.109C34.891,153.023 37.826,155.958 41.74,155.958C45.654,155.958 48.59,153.023 48.59,149.109C48.59,145.195 45.653,142.259 41.74,142.259ZM41.74,162.807C38.152,162.807 35.218,165.744 35.218,169.329C35.218,172.918 38.153,175.852 41.74,175.852C45.327,175.852 48.263,172.916 48.263,169.329C48.263,165.742 45.327,162.807 41.74,162.807ZM21.517,143.237C18.256,143.237 15.646,145.845 15.646,149.108C15.646,152.37 18.255,154.977 21.517,154.977C24.779,154.977 27.389,152.37 27.389,149.108C27.389,145.846 24.78,143.237 21.517,143.237Z" style="fill:rgb(0,176,185);fill-rule:nonzero;"/>
        <g id="wordmark">
            <g>
                <path d="M185.901,136.388C185.25,136.388 184.596,137.04 184.596,137.694L184.596,188.9C184.596,189.551 185.248,190.205 185.901,190.205L192.098,190.205C192.75,190.205 193.403,189.553 193.403,188.9L193.403,137.693C193.403,137.041 192.752,136.387 192.098,136.387L185.901,136.387L185.901,136.388Z" style="fill:rgb(0,42,58);fill-rule:nonzero;"/>
                <path d="M189.163,114.861C185.9,114.861 183.292,117.47 183.292,120.732C183.292,123.994 185.9,126.602 189.163,126.602C192.424,126.602 195.033,123.994 195.033,120.732C195.033,117.47 192.425,114.861 189.163,114.861Z" style="fill:rgb(0,42,58);fill-rule:nonzero;"/>
                <path d="M317.342,136.388C316.691,136.388 316.037,137.04 316.037,137.694L316.037,188.9C316.037,189.551 316.689,190.205 317.342,190.205L323.538,190.205C324.19,190.205 324.844,189.553 324.844,188.9L324.844,137.693C324.844,137.041 324.192,136.387 323.538,136.387L317.342,136.387L317.342,136.388Z" style="fill:rgb(0,42,58);fill-rule:nonzero;"/>
                <path d="M320.277,114.861C317.015,114.861 314.407,117.47 314.407,120.732C314.407,123.994 317.015,126.602 320.277,126.602C323.539,126.602 326.148,123.994 326.148,120.732C326.148,117.47 323.538,114.861 320.277,114.861Z" style="fill:rgb(0,42,58);fill-rule:nonzero;"/>
                <path d="M382.246,185.313C382.572,184.987 382.572,184.661 382.572,184.334L382.572,184.008C382.572,184.008 382.572,183.682 382.246,183.682C382.246,183.682 381.92,183.357 381.595,183.357L380.943,183.357L379.312,183.357L379.312,187.922L379.963,187.922L379.963,186.291L380.942,186.291L382.247,187.922L382.899,187.922L381.268,185.965C381.92,185.964 382.246,185.638 382.246,185.313ZM379.963,185.638L379.963,184.007L381.269,184.007C381.595,184.007 381.92,184.007 382.248,184.333C382.574,184.333 382.574,184.659 382.574,184.985C382.574,185.31 382.574,185.636 382.248,185.636C381.923,185.636 381.597,185.962 381.269,185.962L379.963,185.962L379.963,185.638Z" style="fill:rgb(0,42,58);fill-rule:nonzero;"/>
                <path d="M380.942,181.397C378.659,181.397 376.703,183.353 376.703,185.636C376.703,187.919 378.659,189.876 380.942,189.876C383.225,189.876 385.182,187.919 385.182,185.636C385.182,183.353 383.225,181.397 380.942,181.397ZM380.942,189.552C378.659,189.552 377.029,187.921 377.029,185.638C377.029,183.356 378.659,181.724 380.942,181.724C383.225,181.724 384.856,183.356 384.856,185.638C384.856,187.921 382.899,189.552 380.942,189.552Z" style="fill:rgb(0,42,58);fill-rule:nonzero;"/>
                <path d="M236.782,144.868C237.434,144.868 238.087,144.216 238.087,143.563L238.087,137.366C238.087,136.714 237.436,136.06 236.782,136.06L223.735,136.06L223.735,116.492C223.735,115.84 223.083,115.187 222.43,115.187L216.234,115.187C215.582,115.187 214.929,115.838 214.929,116.492L214.929,136.06L208.405,136.06C207.754,136.06 207.101,136.712 207.101,137.366L207.101,143.563C207.101,144.214 207.752,144.868 208.405,144.868L214.929,144.868L214.929,174.549C214.929,183.681 221.124,189.552 229.932,189.552L236.453,189.552C237.105,189.552 237.76,188.901 237.76,188.247L237.76,182.05C237.76,181.399 237.108,180.745 236.453,180.745L230.909,180.745C226.669,180.745 223.733,177.808 223.733,173.244L223.733,144.542L236.78,144.542L236.782,144.868Z" style="fill:rgb(0,42,58);fill-rule:nonzero;"/>
                <path d="M366.592,144.868C367.243,144.868 367.897,144.216 367.897,143.563L367.897,137.366C367.897,136.714 367.245,136.06 366.592,136.06L353.545,136.06L353.545,116.492C353.545,115.84 352.894,115.187 352.24,115.187L346.043,115.187C345.392,115.187 344.738,115.838 344.738,116.492L344.738,136.06L338.217,136.06C337.565,136.06 336.911,136.712 336.911,137.366L336.911,143.563C336.911,144.214 337.563,144.868 338.217,144.868L344.738,144.868L344.738,174.549C344.738,183.681 350.935,189.552 359.742,189.552L366.264,189.552C366.915,189.552 367.569,188.901 367.569,188.247L367.569,182.05C367.569,181.399 366.917,180.745 366.264,180.745L360.394,180.745C356.153,180.745 353.218,177.808 353.218,173.244L353.218,144.542L366.59,144.542L366.592,144.868Z" style="fill:rgb(0,42,58);fill-rule:nonzero;"/>
                <path d="M147.089,144.868L147.089,188.573C147.089,189.224 147.74,189.878 148.394,189.878L154.591,189.878C155.242,189.878 155.896,189.226 155.896,188.573L155.896,144.868L170.248,144.868C170.899,144.868 171.553,144.216 171.553,143.562L171.553,137.366C171.553,136.714 170.901,136.06 170.248,136.06L155.896,136.06L155.896,124.646C155.896,120.08 159.157,116.818 163.071,116.818L170.247,116.818C170.899,116.818 171.552,116.166 171.552,115.513L171.552,109.316C171.552,108.664 170.9,108.011 170.247,108.011L163.397,108.011C154.265,108.011 147.089,115.511 147.089,124.318L147.089,136.059L140.566,136.059C139.915,136.059 139.261,136.711 139.261,137.365L139.261,143.562C139.261,144.213 139.913,144.867 140.566,144.867L147.089,144.868Z" style="fill:rgb(0,42,58);fill-rule:nonzero;"/>
            </g>
            <path d="M296.469,142.585C291.575,137.366 284.727,134.431 277.552,134.431C270.701,134.431 263.853,137.368 259.613,141.607L259.613,108.992C259.613,108.34 258.961,107.686 258.308,107.686L252.112,107.686C251.46,107.686 250.807,108.338 250.807,108.992L250.807,162.807C250.807,182.703 264.179,191.508 277.226,191.508C290.272,191.508 303.644,182.702 303.644,162.807C303.969,154.979 301.361,147.804 296.469,142.585ZM277.552,183.354C264.504,183.354 259.613,172.917 259.613,163.132C259.613,151.066 266.789,143.236 277.552,143.236C288.315,143.236 295.49,151.389 295.49,163.132C295.162,172.918 290.597,183.354 277.552,183.354Z" style="fill:rgb(0,42,58);fill-rule:nonzero;"/>
        </g>
    </g>
</svg>
